<?xml version="1.0" encoding="UTF-8"?>
<map version="1.9" tiledversion="1.9.2" orientation="orthogonal" renderorder="right-down" width="20" height="15" tilewidth="32" tileheight="32" infinite="0" nextlayerid="7" nextobjectid="1">
 <editorsettings>
  <export target="../../../../../Juego_Diseño/primerEscenario.room.gmx.room.gmx" format="gmx"/>
 </editorsettings>
 <tileset firstgid="1" source="Wall_5_16x16.tsx"/>
 <tileset firstgid="485" source="Floor_1_32x32.tsx"/>
 <tileset firstgid="1475" source="Floor_2_32x32.tsx"/>
 <tileset firstgid="2465" source="Floor_3_32x32.tsx"/>
 <tileset firstgid="3455" source="Items_1_32x32.tsx"/>
 <tileset firstgid="4805" source="Others_1_32x32.tsx"/>
 <tileset firstgid="6155" source="Wall_1_32x32.tsx"/>
 <tileset firstgid="7145" source="Wall_2_32x32.tsx"/>
 <tileset firstgid="8135" source="Wall_3_32x32.tsx"/>
 <tileset firstgid="9125" source="Wall_4_32x32.tsx"/>
 <tileset firstgid="10115" source="Wall_5_32x32.tsx"/>
 <layer id="1" name="Piso" width="20" height="15">
  <data encoding="csv">
1610614369,1610614391,1610614413,1610614369,1610614391,1610614413,1610614369,1610614391,1610614413,1610614369,1610614391,1610614413,1610614369,1610614391,1610614413,1610614369,1610614391,1610614413,1610614369,1610614391,
1610614368,1610614390,1610614412,1610614368,1610614390,1610614412,1610614368,1610614390,1610614412,1610614368,1610614390,1610614412,1610614368,1610614390,1610614412,1610614368,1610614390,1610614412,1610614368,1610614390,
1610614367,1610614389,1610614411,1610614367,1610614389,1610614411,1610614367,1610614389,1610614411,1610614367,1610614389,1610614411,1610614367,1610614389,1610614411,1610614367,1610614389,1610614411,1610614367,1610614389,
1610614369,1610614391,1610614413,1610614369,1610614391,1610614413,1610614369,1610614391,1610614413,1610614369,1610614391,1610614413,1610614369,1610614391,1610614413,1610614369,1610614391,1610614413,1610614369,1610614391,
1610614368,1610614390,1610614412,1610614368,1610614390,1610614412,1610614368,1610614390,1610614412,1610614368,1610614390,1610614412,1610614368,1610614390,1610614412,1610614368,1610614390,1610614412,1610614368,1610614390,
1610614367,1610614389,1610614411,1610614367,1610614389,1610614411,1610614367,1610614389,1610614411,1610614367,1610614389,1610614411,1610614367,1610614389,1610614411,1610614367,1610614389,1610614411,1610614367,1610614389,
1610614369,1610614391,1610614413,1610614369,1610614391,1610614413,1610614369,1610614391,1610614413,1610614369,1610614391,1610614413,1610614369,1610614391,1610614413,1610614369,1610614391,1610614413,1610614369,1610614391,
1610614368,1610614390,1610614412,1610614368,1610614390,1610614412,1610614368,1610614390,1610614412,1610614368,1610614390,1610614412,1610614368,1610614390,1610614412,1610614368,1610614390,1610614412,1610614368,1610614390,
1610614367,1610614389,1610614411,1610614367,1610614389,1610614411,1610614367,1610614389,1610614411,1610614367,1610614389,1610614411,1610614367,1610614389,1610614411,1610614367,1610614389,1610614411,1610614367,1610614389,
1610614369,1610614391,1610614413,1610614369,1610614391,1610614413,1610614369,1610614391,1610614413,1610614369,1610614391,1610614413,1610614369,1610614391,1610614413,1610614369,1610614391,1610614413,1610614369,1610614391,
1610614368,1610614390,1610614412,1610614368,1610614390,1610614412,1610614368,1610614390,1610614412,1610614368,1610614390,1610614412,1610614368,1610614390,1610614412,1610614368,1610614390,1610614412,1610614368,1610614390,
1610614367,1610614389,1610614411,1610614367,1610614389,1610614411,1610614367,1610614389,1610614411,1610614367,1610614389,1610614411,1610614367,1610614389,1610614411,1610614367,1610614389,1610614411,1610614367,1610614389,
1610614369,1610614391,1610614413,1610614369,1610614391,1610614413,1610614369,1610614391,1610614413,1610614369,1610614391,1610614413,1610614369,1610614391,1610614413,1610614369,1610614391,1610614413,1610614369,1610614391,
1610614368,1610614390,1610614412,1610614368,1610614390,1610614412,1610614368,1610614390,1610614412,1610614368,1610614390,1610614412,1610614368,1610614390,1610614412,1610614368,1610614390,1610614412,1610614368,1610614390,
1610614367,1610614389,1610614411,1610614367,1610614389,1610614411,1610614367,1610614389,1610614411,1610614367,1610614389,1610614411,1610614367,1610614389,1610614411,1610614367,1610614389,1610614411,1610614367,1610614389
</data>
 </layer>
 <layer id="5" name="Iluminacion" width="20" height="15">
  <data encoding="csv">
0,0,0,0,0,0,0,0,0,0,0,0,0,0,0,0,0,0,0,0,
0,0,0,0,0,0,0,0,0,0,0,0,0,0,0,0,0,0,0,0,
0,0,0,0,0,0,0,0,0,0,0,0,0,0,0,0,0,0,0,0,
0,0,0,0,0,0,0,0,0,0,0,0,0,0,0,0,0,0,0,0,
0,0,0,0,0,0,0,0,0,0,0,0,0,0,0,0,0,0,0,0,
0,0,0,0,0,0,0,0,0,0,0,0,0,0,0,0,0,0,0,0,
0,0,0,0,0,0,0,0,0,0,0,0,0,0,0,0,0,0,0,0,
0,0,0,0,0,0,0,0,0,0,0,0,0,0,0,0,0,0,0,0,
0,0,0,0,0,0,0,0,0,0,0,0,0,0,0,0,0,0,0,0,
0,0,0,0,0,0,0,0,0,0,0,0,0,0,0,0,0,0,0,0,
0,0,0,0,0,0,0,0,0,0,0,0,0,0,0,0,0,0,0,0,
0,0,0,0,0,0,0,0,0,0,0,0,0,0,0,0,0,0,0,0,
0,0,0,0,0,0,0,0,0,0,0,0,0,0,0,0,0,0,0,0,
0,0,0,0,0,0,0,0,0,0,0,0,0,0,0,0,0,0,0,0,
0,0,0,0,0,0,0,0,0,0,0,0,0,0,0,0,0,0,0,0
</data>
 </layer>
 <layer id="2" name="Paredes" width="20" height="15">
  <data encoding="csv">
838,838,838,838,838,838,838,839,840,838,840,840,838,838,838,838,840,840,840,840,
860,860,860,860,860,860,860,861,838,838,862,862,838,862,862,838,862,862,862,862,
838,838,838,838,838,838,838,838,838,838,838,838,838,838,838,838,838,838,838,838,
0,0,0,0,0,0,0,0,0,0,0,0,0,0,0,0,0,0,0,0,
0,0,0,0,0,0,0,0,0,0,0,0,0,0,0,0,0,0,0,0,
0,0,0,0,0,0,0,0,0,0,0,0,0,0,0,0,0,0,0,0,
0,0,0,0,0,0,0,0,0,0,0,0,0,0,0,0,0,0,0,0,
0,0,0,0,0,0,0,0,0,0,0,0,0,0,0,0,0,0,0,0,
0,0,0,0,0,0,0,0,0,0,0,0,0,0,0,0,0,0,0,0,
0,0,0,0,0,1610613027,0,0,0,0,0,0,0,0,2684354849,0,0,0,0,0,
0,0,0,0,0,1610613026,0,0,0,0,0,0,0,0,2684354850,0,0,0,0,0,
0,0,0,0,0,1610613025,0,0,0,0,0,0,0,0,2684354851,0,0,0,0,0,
0,0,0,0,0,1610613027,0,0,0,0,0,0,0,0,2684354849,0,0,0,0,0,
0,0,0,0,0,1610613026,0,0,0,0,0,0,0,0,2684354850,0,0,0,0,0,
0,0,0,0,0,1610613025,0,0,0,0,0,0,0,0,2684354851,0,0,0,0,0
</data>
 </layer>
 <layer id="4" name="Puertas" width="20" height="15">
  <data encoding="csv">
0,0,0,0,0,3571,3572,3571,3572,0,0,0,0,0,0,0,0,0,0,0,
0,0,0,0,0,3601,3602,3601,3602,0,0,0,5018,0,0,5018,0,0,5018,0,
0,0,0,0,0,3631,3632,3631,3632,0,0,0,5048,0,0,5048,0,0,5048,0,
0,0,0,0,0,0,0,0,0,0,0,0,0,0,0,0,0,0,0,0,
0,0,0,0,0,0,0,0,0,0,0,0,0,0,0,0,0,0,0,0,
0,0,0,0,0,0,0,0,0,0,0,0,0,0,0,0,0,0,0,0,
0,0,0,0,0,0,0,0,0,0,0,0,0,0,0,0,0,0,0,0,
0,0,0,0,0,0,0,0,0,0,0,0,0,0,0,0,0,0,0,0,
0,0,0,0,0,0,0,0,0,0,0,0,0,0,0,0,0,0,0,0,
0,0,0,0,0,0,0,0,0,0,0,0,0,0,0,0,0,0,0,0,
0,0,0,0,0,0,0,0,0,0,0,0,0,0,0,0,0,0,0,0,
0,0,0,0,0,0,0,0,0,0,0,0,0,0,0,0,0,0,0,0,
0,0,0,0,0,0,0,0,0,0,0,0,0,0,0,0,0,0,0,0,
0,0,0,0,0,0,0,0,0,0,0,0,0,0,0,0,0,0,0,0,
0,0,0,0,0,0,0,0,0,0,0,0,0,0,0,0,0,0,0,0
</data>
 </layer>
 <layer id="3" name="Items" width="20" height="15">
  <data encoding="csv">
3481,3482,3483,0,0,0,0,0,0,0,0,0,0,0,0,0,0,0,0,0,
3511,3512,3513,0,0,0,0,0,0,0,0,0,0,0,0,0,0,0,0,0,
3541,3542,3543,0,0,0,0,0,0,0,0,0,0,0,0,0,0,0,0,0,
0,0,0,0,0,0,0,0,0,0,0,0,0,0,0,0,0,0,0,0,
0,0,0,0,0,0,0,0,0,0,0,0,0,0,0,0,0,0,0,0,
0,0,0,0,0,0,0,0,0,0,0,0,0,0,0,0,0,0,0,0,
0,0,0,0,0,0,0,0,0,0,0,0,0,0,0,0,0,0,0,0,
0,0,0,0,0,0,0,0,0,0,0,0,0,0,0,0,0,0,0,0,
0,0,0,0,0,0,0,0,0,0,0,0,0,0,0,0,0,0,0,0,
0,0,0,0,0,0,0,0,0,0,0,3550,0,0,0,0,0,0,0,0,
3587,0,0,3644,3645,0,0,0,0,0,0,3580,0,0,0,0,0,0,0,3587,
3617,0,0,3674,3675,0,0,0,0,0,0,0,0,0,0,0,0,0,0,3617,
0,0,0,3644,3645,0,0,0,3667,0,0,0,0,0,0,0,0,0,0,0,
0,0,0,3674,3675,3665,3666,0,3697,0,0,0,0,2147487314,2147487313,0,0,0,0,0,
0,0,0,0,0,3695,3696,0,0,0,0,0,0,2147487344,2147487343,0,0,0,0,0
</data>
 </layer>
 <layer id="6" name="Muebles" width="20" height="15">
  <data encoding="csv">
0,0,0,3499,3499,0,0,0,0,3499,3499,0,0,0,0,0,0,0,0,0,
0,0,0,3529,3529,0,0,0,0,3529,3529,0,0,0,0,0,0,0,0,0,
0,0,0,0,0,0,0,0,0,0,0,0,0,0,0,0,0,0,0,0,
0,0,0,0,0,0,0,0,0,0,0,0,0,0,0,0,0,0,0,0,
0,0,0,0,0,0,0,0,0,0,0,0,0,0,0,0,0,0,0,0,
0,0,0,0,0,0,0,0,0,0,0,0,0,0,0,0,0,0,0,0,
0,0,0,0,0,0,0,0,0,0,0,0,0,0,0,0,0,0,0,0,
0,0,0,0,0,0,0,0,0,0,0,0,0,0,0,0,0,0,0,0,
0,0,0,0,0,0,0,0,0,0,0,0,0,0,0,0,0,0,0,0,
0,0,0,0,0,0,3546,3547,3548,3549,3546,3547,3548,3549,3549,0,0,0,0,0,
3503,0,0,0,0,0,3576,3577,3578,3579,3576,3577,3578,3579,3579,2147487293,2147487292,0,0,3503,
3533,0,0,0,0,0,0,0,0,0,0,0,3740,0,0,2147487323,2147487322,0,0,3533,
0,0,0,0,0,0,0,3738,3739,3740,3738,3739,3740,0,0,2147487293,2147487292,0,0,0,
0,0,0,0,0,0,0,3768,3769,3770,3768,3769,3770,0,0,2147487323,2147487322,0,0,0,
0,0,0,0,0,0,0,0,0,0,0,0,0,0,0,0,0,0,0,0
</data>
 </layer>
</map>
